src/svg/point-of-interest-outline.svg

<svg version="1.2" baseProfile="tiny" xmlns="http://www.w3.org/2000/svg" width="24" height="24" viewBox="0 0 24 24"><path d="M16.5 4c1.93 0 3.5 1.57 3.5 3.5s-1.57 3.5-3.5 3.5h-1.5v2h1.5c1.93 0 3.5 1.57 3.5 3.5s-1.57 3.5-3.5 3.5-3.5-1.57-3.5-3.5v-1.5h-2v1.5c0 1.93-1.57 3.5-3.5 3.5s-3.5-1.57-3.5-3.5 1.57-3.5 3.5-3.5h1.5v-2h-1.5c-1.93 0-3.5-1.57-3.5-3.5s1.57-3.5 3.5-3.5 3.5 1.57 3.5 3.5v1.5h2v-1.5c0-1.93 1.57-3.5 3.5-3.5m-1.5 5h1.5c.827 0 1.5-.674 1.5-1.5 0-.828-.673-1.5-1.5-1.5s-1.5.672-1.5 1.5v1.5m-7.5 0h1.5v-1.5c0-.828-.673-1.5-1.5-1.5s-1.5.672-1.5 1.5c0 .826.673 1.5 1.5 1.5m9 9c.827 0 1.5-.674 1.5-1.5 0-.828-.673-1.5-1.5-1.5h-1.5v1.5c0 .826.673 1.5 1.5 1.5m-9 0c.827 0 1.5-.674 1.5-1.5v-1.5h-1.5c-.827 0-1.5.672-1.5 1.5 0 .826.673 1.5 1.5 1.5m9-16c-1.857 0-3.504.926-4.5 2.341-.996-1.415-2.643-2.341-4.5-2.341-3.033 0-5.5 2.468-5.5 5.5 0 1.857.926 3.504 2.341 4.5-1.415.996-2.341 2.643-2.341 4.5 0 3.032 2.467 5.5 5.5 5.5 1.857 0 3.504-.926 4.5-2.341.996 1.415 2.643 2.341 4.5 2.341 3.033 0 5.5-2.468 5.5-5.5 0-1.857-.926-3.504-2.341-4.5 1.415-.996 2.341-2.643 2.341-4.5 0-3.032-2.467-5.5-5.5-5.5zM13 11h-2v2h2z"/></svg>

<?xml version="1.0" encoding="iso-8859-1"?>
<!-- Generator: Adobe Illustrator 16.2.1, SVG Export Plug-In . SVG Version: 6.00 Build 0)  -->
<svg version="1.2" baseProfile="tiny" id="Layer_1" xmlns="http://www.w3.org/2000/svg" xmlns:xlink="http://www.w3.org/1999/xlink"
	 x="0px" y="0px" width="24px" height="24px" viewBox="0 0 24 24" xml:space="preserve">
<g>
	<path d="M16.5,4C18.43,4,20,5.57,20,7.5S18.43,11,16.5,11H15v2h1.5c1.93,0,3.5,1.57,3.5,3.5S18.43,20,16.5,20S13,18.43,13,16.5V15
		h-2v1.5c0,1.93-1.57,3.5-3.5,3.5S4,18.43,4,16.5S5.57,13,7.5,13H9v-2H7.5C5.57,11,4,9.43,4,7.5S5.57,4,7.5,4S11,5.57,11,7.5V9h2
		V7.5C13,5.57,14.57,4,16.5,4 M15,9h1.5C17.327,9,18,8.326,18,7.5C18,6.672,17.327,6,16.5,6S15,6.672,15,7.5V9 M7.5,9H9V7.5
		C9,6.672,8.327,6,7.5,6S6,6.672,6,7.5C6,8.326,6.673,9,7.5,9 M16.5,18c0.827,0,1.5-0.674,1.5-1.5c0-0.828-0.673-1.5-1.5-1.5H15v1.5
		C15,17.326,15.673,18,16.5,18 M7.5,18C8.327,18,9,17.326,9,16.5V15H7.5C6.673,15,6,15.672,6,16.5C6,17.326,6.673,18,7.5,18 M16.5,2
		c-1.857,0-3.504,0.926-4.5,2.341C11.004,2.926,9.357,2,7.5,2C4.467,2,2,4.468,2,7.5c0,1.857,0.926,3.504,2.341,4.5
		C2.926,12.996,2,14.643,2,16.5C2,19.532,4.467,22,7.5,22c1.857,0,3.504-0.926,4.5-2.341C12.996,21.074,14.643,22,16.5,22
		c3.033,0,5.5-2.468,5.5-5.5c0-1.857-0.926-3.504-2.341-4.5C21.074,11.004,22,9.357,22,7.5C22,4.468,19.533,2,16.5,2z"/>
</g>
<g>
	<polygon points="13,11 11,11 11,13 13,13 	"/>
</g>
</svg>
